dist/uploads/catalog-sidebar-icons/1/i-catalog-8.svg

<svg width="38" height="38" viewBox="0 0 38 38" fill="none" xmlns="http://www.w3.org/2000/svg">
<path d="M6.32996 31.7971H31.67V35.7197H6.32996V31.7971Z" fill="#FFC800"/>
<path d="M6.3299 30.903L18.4937 30.9064L18.4909 23.5984C18.4909 22.7826 17.8096 22.1189 16.9721 22.1189H5.82277C4.98528 22.1189 4.30396 22.7826 4.30396 23.5983V27.8719C4.88312 28.0313 5.39441 28.3755 5.76012 28.852C6.12583 29.3286 6.32597 29.9115 6.33013 30.5122L6.3299 30.903ZM14.0718 24.2764C14.2025 24.2764 14.3302 24.3151 14.4388 24.3877C14.5474 24.4603 14.6321 24.5634 14.6821 24.6841C14.7321 24.8048 14.7452 24.9376 14.7197 25.0658C14.6942 25.1939 14.6313 25.3116 14.5389 25.404C14.4465 25.4964 14.3288 25.5593 14.2007 25.5848C14.0725 25.6102 13.9397 25.5972 13.819 25.5472C13.6983 25.4972 13.5952 25.4125 13.5226 25.3039C13.45 25.1953 13.4113 25.0676 13.4113 24.9369C13.4115 24.7618 13.4811 24.5939 13.605 24.4701C13.7288 24.3462 13.8967 24.2766 14.0718 24.2764ZM14.0718 27.4269C14.2025 27.4269 14.3302 27.4656 14.4388 27.5382C14.5474 27.6108 14.6321 27.7139 14.6821 27.8346C14.7321 27.9553 14.7452 28.0882 14.7197 28.2163C14.6942 28.3444 14.6313 28.4621 14.5389 28.5545C14.4465 28.6469 14.3288 28.7098 14.2007 28.7353C14.0725 28.7608 13.9397 28.7477 13.819 28.6977C13.6983 28.6477 13.5952 28.563 13.5226 28.4544C13.45 28.3458 13.4113 28.2181 13.4113 28.0874C13.4115 27.9123 13.4811 27.7444 13.605 27.6206C13.7288 27.4968 13.8967 27.4271 14.0718 27.4269ZM8.72635 24.2764C8.857 24.2764 8.98471 24.3151 9.09333 24.3877C9.20196 24.4603 9.28662 24.5634 9.33662 24.6841C9.38661 24.8048 9.3997 24.9376 9.37421 25.0658C9.34872 25.1939 9.28581 25.3116 9.19343 25.404C9.10105 25.4964 8.98335 25.5593 8.85522 25.5848C8.72709 25.6102 8.59427 25.5972 8.47357 25.5472C8.35287 25.4972 8.24971 25.4125 8.17713 25.3039C8.10455 25.1953 8.06581 25.0676 8.06581 24.9369C8.06604 24.7618 8.13569 24.594 8.25948 24.4701C8.38328 24.3463 8.55112 24.2766 8.7262 24.2764H8.72635ZM8.72635 27.4269C8.857 27.4269 8.98471 27.4656 9.09333 27.5382C9.20196 27.6108 9.28662 27.7139 9.33662 27.8346C9.38661 27.9553 9.3997 28.0882 9.37421 28.2163C9.34872 28.3444 9.28581 28.4621 9.19343 28.5545C9.10105 28.6469 8.98335 28.7098 8.85522 28.7353C8.72709 28.7608 8.59427 28.7477 8.47357 28.6977C8.35287 28.6477 8.24971 28.563 8.17713 28.4544C8.10455 28.3458 8.06581 28.2181 8.06581 28.0874C8.06604 27.9123 8.13569 27.7445 8.25948 27.6207C8.38328 27.4968 8.55112 27.4271 8.7262 27.4269H8.72635Z" fill="#FFC800"/>
<path d="M3.53615 28.6558C2.48633 28.6558 1.63281 29.4886 1.63281 30.5121V37.1289H5.43934V30.5121C5.43934 29.4886 4.58553 28.6558 3.53615 28.6558Z" fill="#FFC800"/>
<path d="M33.5056 23.5983C33.5056 22.7826 32.8242 22.1189 31.9867 22.1189H20.9002C20.701 22.1176 20.5036 22.1559 20.3194 22.2316C20.1351 22.3073 19.9678 22.4188 19.8271 22.5598C19.6843 22.7047 19.5718 22.8766 19.4961 23.0654C19.4203 23.2542 19.3829 23.4562 19.3859 23.6596L19.3844 30.9067L31.6698 30.9101V30.5123C31.6731 29.9455 31.8512 29.3937 32.1797 28.9319C32.5083 28.4701 32.9713 28.1209 33.5056 27.932V23.5983ZM23.772 28.7483C23.6413 28.7483 23.5136 28.7096 23.405 28.637C23.2964 28.5644 23.2117 28.4612 23.1617 28.3405C23.1117 28.2198 23.0986 28.087 23.1241 27.9589C23.1496 27.8308 23.2125 27.7131 23.3049 27.6207C23.3973 27.5283 23.515 27.4654 23.6431 27.4399C23.7713 27.4144 23.9041 27.4275 24.0248 27.4775C24.1455 27.5275 24.2486 27.6121 24.3212 27.7208C24.3938 27.8294 24.4325 27.9571 24.4325 28.0878C24.4323 28.2629 24.3626 28.4307 24.2388 28.5545C24.115 28.6784 23.9471 28.748 23.772 28.7483ZM23.772 25.5978C23.6413 25.5978 23.5136 25.559 23.405 25.4865C23.2964 25.4139 23.2117 25.3107 23.1617 25.19C23.1117 25.0693 23.0986 24.9365 23.1241 24.8084C23.1496 24.6802 23.2125 24.5625 23.3049 24.4702C23.3973 24.3778 23.515 24.3149 23.6431 24.2894C23.7713 24.2639 23.9041 24.277 24.0248 24.327C24.1455 24.377 24.2486 24.4616 24.3212 24.5703C24.3938 24.6789 24.4325 24.8066 24.4325 24.9372C24.4324 25.1124 24.3627 25.2803 24.2389 25.4042C24.1151 25.5281 23.9471 25.5978 23.772 25.5981V25.5978ZM29.1173 28.7483C28.9867 28.7483 28.8589 28.7096 28.7503 28.637C28.6417 28.5644 28.557 28.4612 28.507 28.3405C28.457 28.2198 28.444 28.087 28.4694 27.9589C28.4949 27.8308 28.5578 27.7131 28.6502 27.6207C28.7426 27.5283 28.8603 27.4654 28.9884 27.4399C29.1166 27.4144 29.2494 27.4275 29.3701 27.4775C29.4908 27.5275 29.5939 27.6121 29.6665 27.7208C29.7391 27.8294 29.7778 27.9571 29.7778 28.0878C29.7776 28.2628 29.708 28.4306 29.5842 28.5545C29.4605 28.6783 29.2927 28.748 29.1176 28.7483H29.1173ZM29.1173 25.5978C28.9867 25.5978 28.8589 25.559 28.7503 25.4865C28.6417 25.4139 28.557 25.3107 28.507 25.19C28.457 25.0693 28.444 24.9365 28.4694 24.8084C28.4949 24.6802 28.5578 24.5625 28.6502 24.4702C28.7426 24.3778 28.8603 24.3149 28.9884 24.2894C29.1166 24.2639 29.2494 24.277 29.3701 24.327C29.4908 24.377 29.5939 24.4616 29.6665 24.5703C29.7391 24.6789 29.7778 24.8066 29.7778 24.9372C29.7777 25.1124 29.7081 25.2803 29.5843 25.4041C29.4606 25.528 29.2927 25.5978 29.1176 25.5981L29.1173 25.5978Z" fill="#FFC800"/>
<path d="M34.4639 28.6558C33.4145 28.6558 32.5607 29.4883 32.5607 30.5118V37.1286H36.3672V30.5121C36.3672 29.4886 35.5137 28.6558 34.4639 28.6558Z" fill="#FFC800"/>
<path d="M6.80847 7.11772V1.31641C6.80847 1.1983 6.76155 1.08504 6.67804 1.00152C6.59453 0.91801 6.48126 0.871094 6.36316 0.871094C6.24505 0.871094 6.13179 0.91801 6.04828 1.00152C5.96476 1.08504 5.91785 1.1983 5.91785 1.31641V7.11772C5.91785 7.23582 5.96476 7.34909 6.04828 7.4326C6.13179 7.51611 6.24505 7.56303 6.36316 7.56303C6.48126 7.56303 6.59453 7.51611 6.67804 7.4326C6.76155 7.34909 6.80847 7.23582 6.80847 7.11772Z" fill="#FFC800"/>
<path d="M9.50826 10.7078C9.50826 9.87381 9.17696 9.07398 8.58724 8.48426C7.99752 7.89453 7.19768 7.56323 6.36369 7.56323C5.5297 7.56323 4.72986 7.89453 4.14014 8.48426C3.55042 9.07398 3.21912 9.87381 3.21912 10.7078V10.9805H9.50826V10.7078ZM5.61757 9.21059C5.29301 9.44023 5.0149 9.72929 4.79797 10.0625C4.76602 10.1115 4.72473 10.1537 4.67646 10.1867C4.6282 10.2197 4.5739 10.2429 4.51667 10.2549C4.45944 10.267 4.4004 10.2676 4.34292 10.2569C4.28544 10.2461 4.23064 10.2241 4.18166 10.1921C4.13268 10.1602 4.09047 10.1189 4.05745 10.0706C4.02442 10.0224 4.00123 9.96806 3.98919 9.91083C3.97715 9.8536 3.9765 9.79456 3.98727 9.73708C3.99805 9.6796 4.02005 9.6248 4.052 9.57582C4.33007 9.14882 4.68652 8.77837 5.10249 8.48406C5.19888 8.41704 5.31784 8.39078 5.43349 8.41102C5.54913 8.43126 5.65211 8.49634 5.72001 8.59212C5.78791 8.68789 5.81524 8.80661 5.79606 8.92244C5.77687 9.03826 5.71272 9.14182 5.61757 9.21059Z" fill="#FFC800"/>
<path d="M6.4474 12.2587C6.5814 12.2564 6.71253 12.2195 6.82807 12.1515C6.94361 12.0836 7.03966 11.987 7.10691 11.8711H5.78796C5.8552 11.987 5.95123 12.0836 6.06676 12.1515C6.18229 12.2194 6.31341 12.2564 6.4474 12.2587Z" fill="#FFC800"/>
<path d="M11.402 18.0346H19.7972L15.7535 14.1099L11.402 18.0346Z" fill="#FFC800"/>
<path d="M20.8551 17.8205L21.0756 18.0346H27.0279L23.9727 15.4248L20.8551 17.8205Z" fill="#FFC800"/>
<path d="M20.2446 13.7136C20.8185 13.7136 21.2837 13.2484 21.2837 12.6746C21.2837 12.1007 20.8185 11.6355 20.2446 11.6355C19.6708 11.6355 19.2056 12.1007 19.2056 12.6746C19.2056 13.2484 19.6708 13.7136 20.2446 13.7136Z" fill="#FFC800"/>
<path d="M30.76 18.0345V7.4375H8.72294C9.24135 7.81086 9.66362 8.30208 9.95493 8.87066C10.2462 9.43925 10.3982 10.0689 10.3984 10.7078V11.4258C10.3984 11.5439 10.3515 11.6572 10.268 11.7407C10.1845 11.8242 10.0712 11.8711 9.95311 11.8711H8.06551C8.00565 12.0953 7.90178 12.3054 7.75995 12.4891C7.61812 12.6729 7.44116 12.8265 7.23938 12.9412V18.0345H10.0719L15.4661 13.1693C15.55 13.0936 15.6596 13.0526 15.7726 13.0547C15.8856 13.0568 15.9936 13.1017 16.0747 13.1805L20.2095 17.1936L23.7166 14.4987C23.7976 14.4364 23.8974 14.4039 23.9995 14.4066C24.1016 14.4092 24.1996 14.4468 24.2773 14.5131L28.3996 18.0345H30.76ZM20.2441 14.6043C19.8624 14.6043 19.4893 14.4911 19.172 14.2791C18.8546 14.067 18.6073 13.7657 18.4613 13.4131C18.3152 13.0605 18.277 12.6725 18.3515 12.2981C18.4259 11.9238 18.6097 11.58 18.8796 11.3101C19.1494 11.0402 19.4933 10.8564 19.8676 10.782C20.2419 10.7075 20.6299 10.7457 20.9825 10.8918C21.3351 11.0379 21.6365 11.2852 21.8485 11.6025C22.0606 11.9199 22.1737 12.2929 22.1737 12.6746C22.1732 13.1862 21.9697 13.6767 21.6079 14.0385C21.2462 14.4002 20.7557 14.6037 20.2441 14.6043Z" fill="#FFC800"/>
</svg>

<svg width="38" height="38" fill="none" xmlns="http://www.w3.org/2000/svg"><path d="M6.33 31.797h25.34v3.923H6.33v-3.923zm0-.894l12.164.003-.003-7.308c0-.815-.681-1.48-1.519-1.48H5.822c-.837 0-1.518.665-1.518 1.48v4.274a2.758 2.758 0 0 1 2.026 2.64v.391zm7.742-6.627a.66.66 0 1 1 0 1.32.66.66 0 0 1 0-1.32zm0 3.15a.66.66 0 1 1 0 1.321.66.66 0 0 1 0-1.32zm-5.346-3.15a.66.66 0 1 1 0 1.321.66.66 0 0 1 0-1.32zm0 3.15a.66.66 0 1 1 0 1.322.66.66 0 0 1 0-1.321zm-5.19 1.23c-1.05 0-1.903.833-1.903 1.856v6.617h3.806v-6.617c0-1.023-.853-1.856-1.903-1.856zm29.97-5.058c0-.815-.682-1.48-1.52-1.48H20.9a1.502 1.502 0 0 0-1.404.947c-.076.19-.113.391-.11.595l-.002 7.247 12.286.003v-.398a2.754 2.754 0 0 1 1.836-2.58v-4.334zm-9.734 5.15a.66.66 0 1 1 0-1.32.66.66 0 0 1 0 1.32zm0-3.15a.661.661 0 1 1 0-1.323.661.661 0 0 1 0 1.323zm5.345 3.15a.66.66 0 1 1 0-1.32.66.66 0 0 1 0 1.32zm0-3.15a.661.661 0 1 1 0-1.323.661.661 0 0 1 0 1.323zm5.347 3.058c-1.05 0-1.903.832-1.903 1.856v6.617h3.806v-6.617c0-1.023-.853-1.856-1.903-1.856zM6.808 7.118V1.316a.445.445 0 0 0-.89 0v5.802a.445.445 0 1 0 .89 0z" fill="#FFC800"/><path d="M9.508 10.708a3.145 3.145 0 1 0-6.289 0v.272h6.29v-.272zM5.618 9.21c-.325.23-.603.518-.82.851a.445.445 0 1 1-.746-.486 4.034 4.034 0 0 1 1.05-1.092.445.445 0 0 1 .516.727zm.829 3.049a.777.777 0 0 0 .66-.388H5.788a.778.778 0 0 0 .66.388zm4.955 5.776h8.395l-4.043-3.925-4.352 3.925zm9.453-.215l.22.215h5.953l-3.055-2.61-3.118 2.395zm-.61-4.106a1.04 1.04 0 1 0 0-2.079 1.04 1.04 0 0 0 0 2.079z" fill="#FFC800"/><path d="M30.76 18.035V7.437H8.723a4.032 4.032 0 0 1 1.675 3.27v.719a.445.445 0 0 1-.445.445H8.066a1.75 1.75 0 0 1-.827 1.07v5.094h2.833l5.394-4.866a.445.445 0 0 1 .609.011l4.134 4.014 3.508-2.695a.445.445 0 0 1 .56.014l4.123 3.522h2.36zm-10.516-3.43a1.93 1.93 0 1 1 0-3.86 1.93 1.93 0 0 1 0 3.86z" fill="#FFC800"/></svg>
